outputs/icons/communication/phone_round.svg

<svg xmlns="http://www.w3.org/2000/svg" width="1200" height="1200" fill="none"><g clip-path="url(#a)"><path fill="#000" d="m961.5 762.99-127-14.5c-30.5-3.5-60.5 7-82 28.5l-92 92c-141.5-72-257.498-187.5-329.498-329.5l92.5-92.502c21.5-21.5 32-51.5 28.5-82l-14.5-125.999c-6-50.501-48.5-88.5-99.5-88.5h-86.5c-56.5 0-103.5 46.999-100 103.499C178.002 680.99 519.5 1021.99 946 1048.49c56.5 3.5 103.5-43.5 103.5-100v-86.5c.5-50.5-37.5-93-88-99"/></g><defs><clipPath id="a"><path fill="#fff" d="M0 0h1200v1200H0z"/></clipPath></defs></svg>

<svg width="1200" height="1200" viewBox="0 0 1200 1200" fill="none" xmlns="http://www.w3.org/2000/svg"><g clip-path="url(#clip0_225_2418)"><path d="M961.5 763L834.5 748.5C804 745 774 755.5 752.5 777L660.5 869C519 797 403.002 681.5 331.002 539.5L423.502 447C445.002 425.5 455.502 395.5 452.002 365L437.502 239C431.502 188.501 389.002 150.5 338.002 150.5H251.502C195.002 150.5 148.002 197.5 151.502 254C178.002 681 519.5 1022 946 1048.5C1002.5 1052 1049.5 1005 1049.5 948.5V862C1050 811.5 1012 769 961.5 763Z" fill="#1D1E23"/></g><defs><clipPath id="clip0_225_2418"><path width="24" fill="white" d="M0 0H1200V1200H0V0z"/></clipPath></defs></svg>
